!!!OTL: Ich will dir mein Schicksal erzaehlen, wie mir's in der Fremde erging
!!!ARE: Europa, Mitteleuropa, Deutschland, Schleswig - Holstein
!!!SCT: D0230
!!!YEM: Copyright 1995, estate of Helmut Schaffrath.
**kern
*ICvox
*Ivox
*M4/4
*k[]
*C:
=1
{4g
=2
4c
8e
8g
4a
8g
8f#
=3
4a
4g
4r}
{4g
=4
4c
8e
8g
4a
8g
8cc
=5
2b
4r}
{8g
8g
=6
4e
8g
8cc
4ee
8dd
8cc
=7
4cc
4a
4r}
{8dd
8dd
=8
4cc
8g
8cc
4b
8a
8b
=9
2cc
4r}
{8g
8g
=10
4e
8g
8cc
4ee
8dd
8cc
=11
8cc
8ff
4ff
4r}
{8dd
8dd
=12
4cc
8g
8cc
4b
8a
8b
=13
2cc
4r}
==
!!!AGN: Staende - Lied, Dirne
!! moduliert in die Dominanttonart; Inzipit = Variante zum Lied
!!!ONB: ESAC (Essen Associative Code) Database: DVA
!!!AMT: simple quadruple
!!!AIN: vox
!!!EED: Helmut Schaffrath
!!!EEV: 1.0
*-
